X: 18
M:3/4
L:1/8
K:G
"Temp di Valse"GE|D2 B,2 D2|G3 A BG|A2 G2 G2|G4 D2|G2 B2 d2|ed cB AG|B2 A2 A2|A4 Bd|
e2 g2 ge|d4 c2|B2 d2 c2|B4 GA|B2 A2 B2|G2 E2 D2|E4 F2|G2 z2||
e2 c2 e2|d2 B2 d2|c2 A2 c2|B4 GA|B2 A2 B2|G2 E2 D2|E4 F2|G2 z2||
g2 d2 d2|e2 d2 BA|GA Bc df|e2 d2 d2|g2 d2 d2|e2 d2 BA|G2 B2 A2|G2 z2||

